X:1
T:Title
%%score { ( 1 3 ) | 2 }
L:1/8
Q:1/4=100
M:4/4
K:Bb
V:1 treble nm="Grand Piano"
V:3 treble 
V:2 bass 
V:1
 [DF][DG][DB][DA] [Dc]2 [DB]2 | [EB][EA]A_A =A4 | EFAG B2 A2 | [DG][DA][DG][B,D] [DF]4 | %4
w: Ola~V.~Smithson * * * * *||||
 [DF][DF][_D=E][=DF] [Fd]2 [FB]2 | GGGG [=Ec]4 | [=Ec][EB][EA][EG] [Ec]2 [EB]2 | B2 A2 A4 | %8
w: ||||
 z4 [DB]4[K:bass] | [DF][DG][_DB][DG] [=DF]4 | [Ec]4 [EA]4 | [=EG][EB][EA][EG] z C z _E | %12
w: ||||
 [DF][DF][_D=E][=DF] [Fd]2 [FB]2 | GGGG [=Ec]4 | [=EB][EB][EA][EG] F[FB][Gc][Ge] | d2 c2 [DB]4 |] %16
w: ||||
V:2
 [B,,B,][B,,B,][B,,F,][B,,F,] [B,,F,]2 [B,,F,]2 | [C,F,][C,F,][F,E][F,CE] [F,CE]4 | %2
 [F,A,C][F,A,C][F,CE][F,CE] [F,CE]2 [F,CE]2 | [B,,B,][B,,B,][B,,B,][B,,F,] [B,,B,]4 | %4
 [B,,B,][B,,B,][B,,B,][B,,B,] [B,,B,]2 [D,B,]2 | [E,B,E][E,B,E][E,B,E][E,B,E] [C,C]4 | %6
 [C,G,][C,G,][C,G,][C,G,] [C,G,]2 [C,C]2 | [F,CE]2 [F,CE]2 [F,CE]4 | %8
 [B,,B,]2 [B,,B,]2 [B,,F,]2 z2 | [B,,B,][B,,B,][B,,G,][B,,G,] [B,,B,]4 | [F,A,]2 F,2 F,2 F,2 | %11
 [C,C][C,C][C,C][C,B,] [F,A,]F,[D,B,][C,A,] | [B,,B,][B,,B,][B,,B,][B,,B,] [B,,B,]2 [D,B,]2 | %13
 [E,B,E][E,B,E][E,B,E][E,B,E] [C,C]4 | [C,G,][C,G,][C,G,][C,B,] [D,B,][D,B,][E,B,][E,B,] | %15
 [F,B,F]2 [F,E]2 [B,,F,]4 |] %16
V:3
 x8 | x8 | x8 | x8 | x8 | x8 | x8 | x8 | [Fd]4 z2[K:bass] [B,,F,]2 | x8 | z2 A,2 C2 C2 | z4 F2 F2 | %12
 x8 | x8 | x8 | x8 |] %16

